X:48
T:T.E. Hills Quickstep
S:American Veteran Fifer #48
C:To T.E. Hill Ashland Oregon Co.I.34th Mi. Vol. Inf. by A.F. Hopkins Fife Major
M:2/4
L:1/8
Q:1/8=180
K:D 
%%MIDI program 72
%%MIDI transpose 8
%%MIDI ratio 3 1
d/e/ | faeg | d/f/e/a/ f/d/B/A/ | dfeg | f/a/d/f/ e(a |
f)(ae)g | d/f/e/a/ f/d/B/A/ | df e/b/g/e/ | dfd :|
|: e/f/ | g2- g/a/g/e/ | f2- f/a/f/d/ | e{e}a e{e}a | e{e}a/b/ a/g/e/f/ |
g2- g/a/g/e/ | f2- f/a/f/d/ | e/e/a/b/ a/g/e/c/ | dfd :|



